X:1
T:Old Figary O'
M:6/8
L:1/8
K:D
S:J. Hand from Ryan's Mammoth Collection
A|d2dd2A|B2A ABc|d2d ede|f2d def|!
g2g f2f|efd cBA|BAG FGA|B2cd2:|]!
f|a2a fdf|g2e efg|a2a fdf|edA A2(f/g/)|!
a2a g2g|fgd cBA|BAG FGA|B2cd2:|]!
